;FLAVOR:Marlin
;TIME:21708
;Filament used: 10.3729m
;Layer height: 0.16

;POSTPROCESSED
;ChangeAtZ instances: 1
;Generated with Cura_SteamEngine 3.6.0
M140 S60
M105
M190 S60
M104 S200
M105
M109 S200
M82 ;absolute extrusion mode
; Ender 3 Custom Start G-code
G28 ; Home all axes
G92 E0 ; Reset Extruder
G1 Z2.0 F3000 ; Move Z Axis up little to prevent scratching of Heat Bed
G1 X0.1 Y20 Z0.3 F5000.0 ; Move to start position
G1 X0.1 Y200.0 Z0.3 F1500.0 E15 ; Draw the first line
G1 X0.4 Y200.0 Z0.3 F5000.0 ; Move to side a little
G1 X0.4 Y20 Z0.3 F1500.0 E30 ; Draw the second line
G92 E0 ; Reset Extruder
G1 Z2.0 F3000 ; Move Z Axis up little to prevent scratching of Heat Bed
; End of custom start GCode
G92 E0
G1 F2400 E-5
;LAYER_COUNT:32

;LAYER:0
M107
M204 S5000
M205 X30 Y30
G0 F3600 X39.586 Y67.102 Z0.2
M204 S500
M205 X20 Y20
;TYPE:SKIRT
G1 F2400 E0
G1 F1200 X40.211 Y66.753 E0.02381
G1 X40.871 Y66.477 E0.0476
G1 X41.557 Y66.276 E0.07138
G1 X42.262 Y66.153 E0.09518
G1 X43.003 Y66.109 E0.11987
G1 X51.356 Y66.1 E0.39769
G1 X56.719 Y65.948 E0.57614
G1 X62 Y65.499 E0.75242
G1 X67.244 Y64.752 E0.9286
G1 X72.466 Y63.705 E1.10574
G1 X74.999 Y63.084 E1.19248
G1 X77.499 Y62.397 E1.27871
G1 X82.61 Y60.752 E1.45729
G1 X87.542 Y58.853 E1.63307
G1 X92.376 Y56.676 E1.8094
G1 X93.043 Y56.419 E1.83318
G1 X93.735 Y56.238 E1.85697
G1 X94.443 Y56.136 E1.88076
G1 X95.004 Y56.111 E1.89944
G1 X139.99 Y56.11 E3.39568
G1 X140.704 Y56.15 E3.41946
G1 X141.409 Y56.269 E3.44324
G1 X142.097 Y56.467 E3.46705
G1 X142.758 Y56.74 E3.49084
G1 X143.385 Y57.084 E3.51463
G1 X143.969 Y57.497 E3.53842
G1 X144.503 Y57.972 E3.56219
G1 X144.981 Y58.504 E3.58597
G1 X145.397 Y59.086 E3.60977
G1 X145.745 Y59.711 E3.63356
G1 X146.022 Y60.371 E3.65737
G1 X146.223 Y61.057 E3.68114
G1 X146.346 Y61.762 E3.70495
G1 X146.39 Y62.51 E3.72987
G1 X146.39 Y172.491 E7.38785
G1 X146.35 Y173.205 E7.41164
G1 X146.231 Y173.91 E7.43542
G1 X146.033 Y174.598 E7.45923
G1 X145.76 Y175.259 E7.48301
G1 X145.416 Y175.886 E7.5068
G1 X145.003 Y176.47 E7.53059
G1 X144.528 Y177.004 E7.55436
G1 X143.996 Y177.483 E7.57817
G1 X143.414 Y177.898 E7.60195
G1 X142.789 Y178.247 E7.62575
G1 X142.129 Y178.523 E7.64955
G1 X141.443 Y178.724 E7.67332
G1 X140.738 Y178.847 E7.69713
G1 X139.997 Y178.891 E7.72182
G1 X131.644 Y178.9 E7.99964
G1 X126.281 Y179.052 E8.17808
G1 X121 Y179.501 E8.35436
G1 X115.756 Y180.248 E8.53054
G1 X110.534 Y181.295 E8.70768
G1 X108.001 Y181.916 E8.79442
G1 X105.501 Y182.603 E8.88066
G1 X100.39 Y184.248 E9.05924
G1 X95.458 Y186.147 E9.23502
G1 X90.624 Y188.324 E9.41135
G1 X89.957 Y188.581 E9.43512
G1 X89.265 Y188.762 E9.45891
G1 X88.557 Y188.864 E9.4827
G1 X87.996 Y188.889 E9.50138
G1 X43.01 Y188.891 E10.99762
G1 X42.296 Y188.851 E11.02141
G1 X41.591 Y188.732 E11.04519
G1 X40.903 Y188.534 E11.069
G1 X40.242 Y188.262 E11.09277
G1 X39.616 Y187.917 E11.11655
G1 X39.031 Y187.504 E11.14036
G1 X38.497 Y187.029 E11.16413
G1 X38.019 Y186.497 E11.18792
G1 X37.603 Y185.915 E11.21172
G1 X37.255 Y185.29 E11.23551
G1 X36.978 Y184.63 E11.25931
G1 X36.777 Y183.944 E11.28309
G1 X36.654 Y183.239 E11.30689
G1 X36.61 Y182.491 E11.33181
G1 X36.61 Y72.509 E14.98983
G1 X36.65 Y71.795 E15.01362
G1 X36.769 Y71.09 E15.0374
G1 X36.967 Y70.402 E15.06121
G1 X37.24 Y69.741 E15.08499
G1 X37.584 Y69.114 E15.10878
G1 X37.997 Y68.53 E15.13257
G1 X38.472 Y67.996 E15.15634
G1 X39.004 Y67.517 E15.18015
G1 X39.586 Y67.102 E15.20393
M204 S5000
M205 X30 Y30
G0 F3600 X39.969 Y67.336
M204 S500
M205 X20 Y20
G1 F1200 X40.586 Y67.021 E15.22697
G1 X41.234 Y66.778 E15.24999
G1 X41.907 Y66.611 E15.27305
G1 X42.593 Y66.523 E15.29605
G1 X43.004 Y66.509 E15.30973
G1 X51.331 Y66.5 E15.58669
G1 X56.764 Y66.346 E15.76746
G1 X62.037 Y65.898 E15.94347
G1 X67.308 Y65.147 E16.12056
G1 X72.57 Y64.092 E16.29906
G1 X75.061 Y63.481 E16.38436
G1 X77.637 Y62.773 E16.47322
G1 X82.735 Y61.133 E16.65134
G1 X87.686 Y59.226 E16.8278
G1 X92.54 Y57.04 E17.00486
G1 X93.187 Y56.793 E17.0279
G1 X93.858 Y56.621 E17.05093
G1 X94.544 Y56.529 E17.07396
G1 X95.004 Y56.511 E17.08927
G1 X139.99 Y56.51 E18.58551
G1 X140.681 Y56.55 E18.60853
G1 X141.363 Y56.669 E18.63155
G1 X142.027 Y56.866 E18.65459
G1 X142.664 Y57.139 E18.67764
G1 X143.265 Y57.483 E18.70067
G1 X143.823 Y57.894 E18.72372
G1 X144.329 Y58.366 E18.74674
G1 X144.778 Y58.894 E18.76979
G1 X145.162 Y59.469 E18.79279
G1 X145.478 Y60.086 E18.81584
G1 X145.721 Y60.734 E18.83886
G1 X145.888 Y61.406 E18.86189
G1 X145.976 Y62.093 E18.88493
G1 X145.99 Y62.51 E18.89881
G1 X145.99 Y172.491 E22.55679
G1 X145.95 Y173.182 E22.57981
G1 X145.831 Y173.865 E22.60287
G1 X145.633 Y174.528 E22.62588
G1 X145.361 Y175.165 E22.64892
G1 X145.017 Y175.766 E22.67195
G1 X144.606 Y176.324 E22.695
G1 X144.134 Y176.83 E22.71802
G1 X143.606 Y177.279 E22.74107
G1 X143.031 Y177.664 E22.76409
G1 X142.414 Y177.979 E22.78713
G1 X141.766 Y178.222 E22.81015
G1 X141.093 Y178.389 E22.83321
G1 X140.407 Y178.477 E22.85621
G1 X139.996 Y178.491 E22.86989
G1 X131.669 Y178.5 E23.14685
G1 X126.236 Y178.654 E23.32762
G1 X120.963 Y179.102 E23.50364
G1 X115.692 Y179.853 E23.68072
G1 X110.43 Y180.908 E23.85922
G1 X107.939 Y181.519 E23.94452
G1 X105.363 Y182.227 E24.03338
G1 X100.265 Y183.867 E24.2115
G1 X95.314 Y185.774 E24.38796
G1 X90.46 Y187.96 E24.56502
G1 X89.813 Y188.207 E24.58806
G1 X89.142 Y188.379 E24.6111
G1 X88.456 Y188.471 E24.63412
G1 X87.996 Y188.489 E24.64943
G1 X43.01 Y188.491 E26.14567
G1 X42.319 Y188.451 E26.16869
G1 X41.637 Y188.332 E26.19172
G1 X40.973 Y188.135 E26.21475
G1 X40.336 Y187.862 E26.2378
G1 X39.735 Y187.518 E26.26083
G1 X39.178 Y187.107 E26.28386
G1 X38.671 Y186.635 E26.3069
G1 X38.222 Y186.108 E26.32992
G1 X37.838 Y185.532 E26.35295
G1 X37.522 Y184.916 E26.37598
G1 X37.279 Y184.267 E26.39903
G1 X37.112 Y183.595 E26.42206
G1 X37.024 Y182.908 E26.44509
G1 X37.01 Y182.491 E26.45897
G1 X37.01 Y72.509 E30.11699
G1 X37.05 Y71.818 E30.14001
G1 X37.169 Y71.135 E30.16307
G1 X37.367 Y70.472 E30.18608
G1 X37.639 Y69.835 E30.20912
G1 X37.983 Y69.234 E30.23215
G1 X38.394 Y68.676 E30.2552
G1 X38.866 Y68.17 E30.27821
G1 X39.394 Y67.721 E30.30127
G1 X39.969 Y67.336 E30.32428
M204 S5000
M205 X30 Y30
G0 F3600 X39.781 Y67.933
M204 S500
M205 X20 Y20
G1 F1200 X40.35 Y67.581 E30.34654
G1 X40.957 Y67.299 E30.3688
G1 X41.593 Y67.091 E30.39105
G1 X42.249 Y66.961 E30.4133
G1 X43.004 Y66.909 E30.43847
G1 X51.343 Y66.9 E30.71582
G1 X56.774 Y66.746 E30.89653
G1 X62.093 Y66.294 E31.07408
G1 X67.372 Y65.542 E31.25143
G1 X72.653 Y64.483 E31.43058
G1 X75.183 Y63.862 E31.51722
G1 X77.746 Y63.158 E31.60563
G1 X82.858 Y61.514 E31.78423
G1 X87.851 Y59.591 E31.96219
G1 X92.704 Y57.405 E32.13922
G1 X93.33 Y57.167 E32.16149
G1 X93.979 Y57.006 E32.18373
G1 X94.643 Y56.923 E32.20599
G1 X95.004 Y56.911 E32.218
G1 X139.99 Y56.91 E33.71424
G1 X140.658 Y56.95 E33.7365
G1 X141.316 Y57.069 E33.75874
G1 X141.955 Y57.266 E33.78098
G1 X142.567 Y57.538 E33.80326
G1 X143.141 Y57.881 E33.8255
G1 X143.671 Y58.29 E33.84776
G1 X144.148 Y58.759 E33.87001
G1 X144.566 Y59.281 E33.89225
G1 X144.918 Y59.85 E33.91451
G1 X145.2 Y60.457 E33.93677
G1 X145.408 Y61.093 E33.95903
G1 X145.538 Y61.749 E33.98127
G1 X145.59 Y62.51 E34.00664
G1 X145.59 Y172.491 E37.66462
G1 X145.55 Y173.159 E37.68688
G1 X145.431 Y173.817 E37.70912
G1 X145.234 Y174.457 E37.73139
G1 X144.962 Y175.068 E37.75364
G1 X144.619 Y175.642 E37.77588
G1 X144.21 Y176.172 E37.79814
G1 X143.741 Y176.649 E37.82039
G1 X143.219 Y177.067 E37.84263
G1 X142.65 Y177.419 E37.86489
G1 X142.043 Y177.701 E37.88715
G1 X141.407 Y177.909 E37.9094
G1 X140.751 Y178.039 E37.93165
G1 X139.996 Y178.091 E37.95682
G1 X131.657 Y178.1 E38.23417
G1 X126.226 Y178.254 E38.41488
G1 X120.907 Y178.706 E38.59243
G1 X115.628 Y179.458 E38.76978
G1 X110.347 Y180.517 E38.94893
G1 X107.817 Y181.138 E39.03557
G1 X105.254 Y181.842 E39.12398
G1 X100.142 Y183.486 E39.30258
G1 X95.149 Y185.409 E39.48054
G1 X90.296 Y187.595 E39.65757
G1 X89.67 Y187.833 E39.67984
G1 X89.021 Y187.994 E39.70208
G1 X88.357 Y188.077 E39.72434
G1 X87.996 Y188.089 E39.73635
G1 X43.01 Y188.091 E41.23259
G1 X42.342 Y188.051 E41.25485
G1 X41.684 Y187.932 E41.27709
G1 X41.045 Y187.735 E41.29933
G1 X40.433 Y187.463 E41.32161
G1 X39.859 Y187.12 E41.34385
G1 X39.329 Y186.711 E41.36611
G1 X38.852 Y186.242 E41.38836
G1 X38.435 Y185.72 E41.41058
G1 X38.082 Y185.151 E41.43286
G1 X37.8 Y184.544 E41.45512
G1 X37.592 Y183.908 E41.47737
G1 X37.462 Y183.252 E41.49962
G1 X37.41 Y182.491 E41.52499
G1 X37.41 Y72.509 E45.183
G1 X37.45 Y71.841 E45.20526
G1 X37.569 Y71.183 E45.2275
G1 X37.766 Y70.543 E45.24977
G1 X38.038 Y69.932 E45.27202
G1 X38.381 Y69.358 E45.29426
G1 X38.79 Y68.828 E45.31652
G1 X39.259 Y68.351 E45.33877
G1 X39.781 Y67.933 E45.36101
M204 S5000
M205 X30 Y30
G0 F3600 X40.167 Y68.155
M204 S500
M205 X20 Y20
G1 F1200 X40.728 Y67.836 E45.38248
G1 X41.324 Y67.59 E45.40392
G1 X41.945 Y67.419 E45.42535
G1 X42.583 Y67.327 E45.44679
G1 X43.004 Y67.309 E45.4608
G1 X51.355 Y67.3 E45.73856
G1 X56.802 Y67.146 E45.9198
G1 X62.129 Y66.693 E46.09761
G1 X67.438 Y65.936 E46.27598
G1 X72.753 Y64.871 E46.45627
G1 X75.278 Y64.251 E46.54275
G1 X77.862 Y63.541 E46.63188
G1 X82.982 Y61.894 E46.81076
G1 X88.017 Y59.955 E46.99022
G1 X92.869 Y57.77 E47.1672
G1 X93.472 Y57.542 E47.18864
G1 X94.098 Y57.39 E47.21007
G1 X95.004 Y57.311 E47.24032
G1 X139.99 Y57.31 E48.73656
G1 X140.633 Y57.35 E48.75799
G1 X141.267 Y57.469 E48.77944
G1 X141.881 Y57.666 E48.80089
G1 X142.466 Y57.937 E48.82233
G1 X143.012 Y58.279 E48.84376
G1 X143.513 Y58.685 E48.86521
G1 X143.959 Y59.15 E48.88664
G1 X144.344 Y59.667 E48.90808
G1 X144.662 Y60.228 E48.92953
G1 X144.909 Y60.824 E48.95098
G1 X145.08 Y61.445 E48.97241
G1 X145.172 Y62.083 E48.99385
G1 X145.19 Y62.51 E49.00806
G1 X145.19 Y172.491 E52.66604
G1 X145.15 Y173.134 E52.68747
G1 X145.031 Y173.768 E52.70893
G1 X144.834 Y174.382 E52.73037
G1 X144.563 Y174.967 E52.75182
G1 X144.221 Y175.514 E52.77327
G1 X143.815 Y176.014 E52.7947
G1 X143.35 Y176.46 E52.81613
G1 X142.833 Y176.845 E52.83757
G1 X142.272 Y177.164 E52.85903
G1 X141.676 Y177.41 E52.88048
G1 X141.055 Y177.581 E52.9019
G1 X140.417 Y177.673 E52.92334
G1 X139.996 Y177.691 E52.93735
G1 X131.645 Y177.7 E53.21511
G1 X126.198 Y177.854 E53.39635
G1 X120.871 Y178.307 E53.57417
G1 X115.562 Y179.064 E53.75253
G1 X110.247 Y180.129 E53.93282
G1 X107.722 Y180.749 E54.0193
G1 X105.138 Y181.459 E54.10843
G1 X100.018 Y183.106 E54.28731
G1 X94.983 Y185.045 E54.46677
G1 X90.131 Y187.23 E54.64375
G1 X89.528 Y187.458 E54.6652
G1 X88.902 Y187.61 E54.68662
G1 X87.996 Y187.689 E54.71687
G1 X43.01 Y187.691 E56.21311
G1 X42.367 Y187.651 E56.23454
G1 X41.733 Y187.532 E56.25599
G1 X41.119 Y187.335 E56.27744
G1 X40.534 Y187.064 E56.29888
G1 X39.988 Y186.722 E56.32031
G1 X39.487 Y186.316 E56.34176
G1 X39.041 Y185.851 E56.36319
G1 X38.656 Y185.334 E56.38463
G1 X38.338 Y184.773 E56.40608
G1 X38.091 Y184.177 E56.42753
G1 X37.92 Y183.556 E56.44896
G1 X37.828 Y182.918 E56.4704
G1 X37.81 Y182.491 E56.48461
G1 X37.81 Y72.509 E60.14263
G1 X37.85 Y71.866 E60.16406
G1 X37.969 Y71.232 E60.18551
G1 X38.166 Y70.618 E60.20696
G1 X38.437 Y70.033 E60.2284
G1 X38.779 Y69.486 E60.24986
G1 X39.185 Y68.986 E60.27128
G1 X39.65 Y68.54 E60.29271
G1 X40.167 Y68.155 E60.31415
M204 S5000
M205 X30 Y30
G1 F2400 E55.31415
;MESH:caja_design (extracted) 5.stl
G0 F3600 X43.615 Y71.835
G0 X43.615 Y73.114
G0 X87.329 Y181.83
G0 X87.399 Y181.9
M204 S500
M205 X20 Y20
;TYPE:WALL-INNER
G1 F2400 E60.31415
G1 F1200 X43.601 Y181.9 E61.77088
G1 X43.601 Y73.1 E65.38958
G1 X87.399 Y73.1 E66.84631
G1 X87.399 Y181.9 E70.46501
M204 S5000
M205 X30 Y30
G0 F3600 X87.799 Y182.3
M204 S500
M205 X20 Y20
;TYPE:WALL-OUTER
G1 F1200 X43.201 Y182.3 E71.94835
G1 X43.201 Y72.7 E75.59366
G1 X87.799 Y72.7 E77.07699
G1 X87.799 Y182.3 E80.7223
M204 S5000
M205 X30 Y30
G0 F3600 X87.599 Y182.3
G0 X87.329 Y181.83
G0 X87.009 Y181.51
M204 S500
M205 X20 Y20
;TYPE:SKIN
G1 F1200 X43.991 Y181.51 E82.15309
G1 X43.991 Y73.49 E85.74585
G1 X87.009 Y73.49 E87.17663
G1 X87.009 Y181.51 E90.76939
M204 S5000
M205 X30 Y30
G0 F3600 X44.433 Y181.329
M204 S500
M205 X20 Y20
G1 F1200 X44.17 Y181.066 E90.78176
M204 S5000
M205 X30 Y30
G0 F3600 X44.17 Y180.501
M204 S500
M205 X20 Y20
G1 F1200 X44.999 Y181.329 E90.82073
M204 S5000
M205 X30 Y30
G0 F3600 X45.565 Y181.329
M204 S500
M205 X20 Y20
G1 F1200 X44.17 Y179.935 E90.88633
M204 S5000
M205 X30 Y30
G0 F3600 X44.17 Y179.369
M204 S500
M205 X20 Y20
G1 F1200 X46.13 Y181.329 E90.97852
M204 S5000
M205 X30 Y30
G0 F3600 X46.696 Y181.329
M204 S500
M205 X20 Y20
G1 F1200 X44.17 Y178.803 E91.09733
M204 S5000
M205 X30 Y30
G0 F3600 X44.17 Y178.238
M204 S500
M205 X20 Y20
G1 F1200 X47.262 Y181.329 E91.24275
M204 S5000
M205 X30 Y30
G0 F3600 X47.827 Y181.329
M204 S500
M205 X20 Y20
G1 F1200 X44.17 Y177.672 E91.41476
M204 S5000
M205 X30 Y30
G0 F3600 X44.17 Y177.106
M204 S500
M205 X20 Y20
G1 F1200 X48.393 Y181.329 E91.6134
M204 S5000
M205 X30 Y30
G0 F3600 X48.959 Y181.329
M204 S500
M205 X20 Y20
G1 F1200 X44.17 Y176.541 E91.83864
M204 S5000
M205 X30 Y30
G0 F3600 X44.17 Y175.975
M204 S500
M205 X20 Y20
G1 F1200 X49.525 Y181.329 E92.09049
M204 S5000
M205 X30 Y30
G0 F3600 X50.09 Y181.329
M204 S500
M205 X20 Y20
G1 F1200 X44.17 Y175.409 E92.36895
M204 S5000
M205 X30 Y30
G0 F3600 X44.17 Y174.844
M204 S500
M205 X20 Y20
G1 F1200 X50.656 Y181.329 E92.67401
M204 S5000
M205 X30 Y30
G0 F3600 X51.222 Y181.329
M204 S500
M205 X20 Y20
G1 F1200 X44.17 Y174.278 E93.00569
M204 S5000
M205 X30 Y30
G0 F3600 X44.17 Y173.712
M204 S500
M205 X20 Y20
G1 F1200 X51.787 Y181.329 E93.36397
M204 S5000
M205 X30 Y30
G0 F3600 X52.353 Y181.329
M204 S500
M205 X20 Y20
G1 F1200 X44.17 Y173.147 E93.74885
M204 S5000
M205 X30 Y30
G0 F3600 X44.17 Y172.581
M204 S500
M205 X20 Y20
G1 F1200 X52.919 Y181.329 E94.16035
M204 S5000
M205 X30 Y30
G0 F3600 X53.484 Y181.329
M204 S500
M205 X20 Y20
G1 F1200 X44.17 Y172.015 E94.59846
M204 S5000
M205 X30 Y30
G0 F3600 X44.17 Y171.45
M204 S500
M205 X20 Y20
G1 F1200 X54.05 Y181.329 E95.06316
M204 S5000
M205 X30 Y30
G0 F3600 X54.616 Y181.329
M204 S500
M205 X20 Y20
G1 F1200 X44.17 Y170.884 E95.55448
M204 S5000
M205 X30 Y30
G0 F3600 X44.17 Y170.318
M204 S500
M205 X20 Y20
G1 F1200 X55.181 Y181.329 E96.07241
M204 S5000
M205 X30 Y30
G0 F3600 X55.747 Y181.329
M204 S500
M205 X20 Y20
G1 F1200 X44.17 Y169.753 E96.61693
M204 S5000
M205 X30 Y30
G0 F3600 X44.17 Y169.187
M204 S500
M205 X20 Y20
G1 F1200 X56.313 Y181.329 E97.18808
M204 S5000
M205 X30 Y30
G0 F3600 X56.878 Y181.329
M204 S500
M205 X20 Y20
G1 F1200 X44.17 Y168.621 E97.78582
M204 S5000
M205 X30 Y30
G0 F3600 X44.17 Y168.055
M204 S500
M205 X20 Y20
G1 F1200 X57.444 Y181.329 E98.41019
M204 S5000
M205 X30 Y30
G0 F3600 X58.01 Y181.329
M204 S500
M205 X20 Y20
G1 F1200 X44.17 Y167.49 E99.06116
M204 S5000
M205 X30 Y30
G0 F3600 X44.17 Y166.924
M204 S500
M205 X20 Y20
G1 F1200 X58.576 Y181.329 E99.73875
M204 S5000
M205 X30 Y30
G0 F3600 X59.141 Y181.329
M204 S500
M205 X20 Y20
G1 F1200 X44.17 Y166.358 E100.44294
M204 S5000
M205 X30 Y30
G0 F3600 X44.17 Y165.793
M204 S500
M205 X20 Y20
G1 F1200 X59.707 Y181.329 E101.17373
M204 S5000
M205 X30 Y30
G0 F3600 X60.273 Y181.329
M204 S500
M205 X20 Y20
G1 F1200 X44.17 Y165.227 E101.93114
M204 S5000
M205 X30 Y30
G0 F3600 X44.17 Y164.661
M204 S500
M205 X20 Y20
G1 F1200 X60.838 Y181.329 E102.71515
M204 S5000
M205 X30 Y30
G0 F3600 X61.404 Y181.329
M204 S500
M205 X20 Y20
G1 F1200 X44.17 Y164.096 E103.52576
M204 S5000
M205 X30 Y30
G0 F3600 X44.17 Y163.53
M204 S500
M205 X20 Y20
G1 F1200 X61.97 Y181.329 E104.363
M204 S5000
