;FLAVOR:Marlin
;TIME:78121
;Filament used: 37.224m
;Layer height: 0.16

;POSTPROCESSED
;ChangeAtZ instances: 1
;Generated with Cura_SteamEngine 3.6.0
M140 S60
M105
M190 S60
M104 S200
M105
M109 S200
M82 ;absolute extrusion mode
; Ender 3 Custom Start G-code
G28 ; Home all axes
G92 E0 ; Reset Extruder
G1 Z2.0 F3000 ; Move Z Axis up little to prevent scratching of Heat Bed
G1 X0.1 Y20 Z0.3 F5000.0 ; Move to start position
G1 X0.1 Y200.0 Z0.3 F1500.0 E15 ; Draw the first line
G1 X0.4 Y200.0 Z0.3 F5000.0 ; Move to side a little
G1 X0.4 Y20 Z0.3 F1500.0 E30 ; Draw the second line
G92 E0 ; Reset Extruder
G1 Z2.0 F3000 ; Move Z Axis up little to prevent scratching of Heat Bed
; End of custom start GCode
G92 E0
G1 F2400 E-5
;LAYER_COUNT:32

;LAYER:0
M107
M204 S5000
M205 X30 Y30
G0 F3600 X17.171 Y6.74 Z0.2
M204 S500
M205 X20 Y20
;TYPE:SKIRT
G1 F2400 E0
G1 F1200 X17.515 Y6.113 E0.02379
G1 X17.928 Y5.529 E0.04758
G1 X18.403 Y4.995 E0.07135
G1 X18.935 Y4.516 E0.09516
G1 X19.517 Y4.101 E0.11893
G1 X20.142 Y3.752 E0.14274
G1 X20.802 Y3.476 E0.16653
G1 X21.488 Y3.275 E0.19031
G1 X22.193 Y3.152 E0.21411
G1 X22.945 Y3.108 E0.23917
G1 X79.268 Y3.145 E2.11248
G1 X79.355 Y3.146 E2.11537
G1 X84.847 Y3.224 E2.29806
G1 X88.168 Y3.117 E2.40857
G1 X88.374 Y3.114 E2.41542
G1 X198.608 Y3.107 E6.08182
G1 X199.322 Y3.147 E6.1056
G1 X200.027 Y3.266 E6.12938
G1 X200.714 Y3.464 E6.15316
G1 X201.376 Y3.736 E6.17697
G1 X202.002 Y4.081 E6.20074
G1 X202.587 Y4.494 E6.22456
G1 X203.121 Y4.969 E6.24833
G1 X203.599 Y5.501 E6.27212
G1 X204.015 Y6.083 E6.29591
G1 X204.363 Y6.708 E6.3197
G1 X204.64 Y7.367 E6.34348
G1 X204.841 Y8.054 E6.36729
G1 X204.964 Y8.758 E6.39106
G1 X205.008 Y9.507 E6.41601
G1 X205.008 Y225.488 E13.59957
G1 X204.968 Y226.202 E13.62335
G1 X204.849 Y226.907 E13.64713
G1 X204.651 Y227.595 E13.67095
G1 X204.378 Y228.256 E13.69473
G1 X204.034 Y228.883 E13.71852
G1 X203.621 Y229.467 E13.74231
G1 X203.146 Y230.001 E13.76608
G1 X202.614 Y230.48 E13.78989
G1 X202.032 Y230.895 E13.81366
G1 X201.407 Y231.244 E13.83747
G1 X200.747 Y231.52 E13.86127
G1 X200.061 Y231.721 E13.88504
G1 X199.356 Y231.844 E13.90885
G1 X198.606 Y231.888 E13.93383
G1 X87.79 Y231.852 E17.61959
G1 X87.701 Y231.851 E17.62255
G1 X82.211 Y231.773 E17.80517
G1 X78.866 Y231.882 E17.91648
G1 X78.658 Y231.885 E17.9234
G1 X22.94 Y231.889 E19.77659
G1 X22.226 Y231.849 E19.80037
G1 X21.521 Y231.73 E19.82415
G1 X20.834 Y231.532 E19.84793
G1 X20.172 Y231.26 E19.87174
G1 X19.546 Y230.915 E19.89551
G1 X18.961 Y230.502 E19.91933
G1 X18.427 Y230.027 E19.9431
G1 X17.949 Y229.495 E19.96689
G1 X17.533 Y228.913 E19.99068
G1 X17.185 Y228.288 E20.01447
G1 X16.908 Y227.629 E20.03825
G1 X16.707 Y226.942 E20.06206
G1 X16.584 Y226.238 E20.08583
G1 X16.54 Y225.489 E20.11078
G1 X16.541 Y9.508 E27.29434
G1 X16.581 Y8.794 E27.31812
G1 X16.7 Y8.089 E27.3419
G1 X16.898 Y7.401 E27.36571
G1 X17.171 Y6.74 E27.3895
M204 S5000
M205 X30 Y30
G0 F3600 X17.57 Y6.834
M204 S500
M205 X20 Y20
G1 F1200 X17.914 Y6.233 E27.41253
G1 X18.325 Y5.675 E27.43558
G1 X18.797 Y5.169 E27.4586
G1 X19.325 Y4.72 E27.48165
G1 X19.9 Y4.335 E27.50467
G1 X20.517 Y4.02 E27.52771
G1 X21.165 Y3.777 E27.55073
G1 X21.838 Y3.61 E27.57379
G1 X22.525 Y3.522 E27.59683
G1 X22.945 Y3.508 E27.6108
G1 X79.268 Y3.545 E29.48411
G1 X79.349 Y3.546 E29.48681
G1 X84.854 Y3.624 E29.66992
G1 X88.181 Y3.517 E29.78064
G1 X88.374 Y3.514 E29.78706
G1 X198.608 Y3.507 E33.45345
G1 X199.299 Y3.547 E33.47648
G1 X199.981 Y3.666 E33.4995
G1 X200.645 Y3.863 E33.52254
G1 X201.282 Y4.136 E33.54559
G1 X201.883 Y4.48 E33.56862
G1 X202.44 Y4.89 E33.59162
G1 X202.947 Y5.363 E33.61469
G1 X203.395 Y5.89 E33.63769
G1 X203.78 Y6.466 E33.66073
G1 X204.096 Y7.082 E33.68376
G1 X204.339 Y7.731 E33.70681
G1 X204.506 Y8.403 E33.72984
G1 X204.593 Y9.09 E33.75287
G1 X204.608 Y9.507 E33.76675
G1 X204.608 Y225.488 E40.95031
G1 X204.568 Y226.179 E40.97333
G1 X204.449 Y226.862 E40.99639
G1 X204.251 Y227.525 E41.0194
G1 X203.979 Y228.162 E41.04244
G1 X203.635 Y228.763 E41.06547
G1 X203.224 Y229.321 E41.08852
G1 X202.752 Y229.827 E41.11154
G1 X202.224 Y230.276 E41.13459
G1 X201.649 Y230.661 E41.15761
G1 X201.032 Y230.976 E41.18065
G1 X200.384 Y231.219 E41.20367
G1 X199.711 Y231.386 E41.22673
G1 X199.025 Y231.474 E41.24973
G1 X198.606 Y231.488 E41.26368
G1 X87.79 Y231.452 E44.94943
G1 X87.707 Y231.451 E44.95219
G1 X82.204 Y231.373 E45.13524
G1 X78.853 Y231.482 E45.24675
G1 X78.658 Y231.485 E45.25324
G1 X22.94 Y231.489 E47.10643
G1 X22.249 Y231.449 E47.12945
G1 X21.567 Y231.33 E47.15248
G1 X20.903 Y231.133 E47.17551
G1 X20.266 Y230.86 E47.19856
G1 X19.665 Y230.516 E47.2216
G1 X19.108 Y230.106 E47.2446
G1 X18.601 Y229.633 E47.26766
G1 X18.153 Y229.106 E47.29067
G1 X17.768 Y228.53 E47.31371
G1 X17.452 Y227.914 E47.33674
G1 X17.209 Y227.265 E47.35979
G1 X17.042 Y226.593 E47.38282
G1 X16.955 Y225.906 E47.40585
G1 X16.94 Y225.489 E47.41973
G1 X16.941 Y9.508 E54.60328
G1 X16.981 Y8.817 E54.62631
G1 X17.1 Y8.134 E54.64936
G1 X17.298 Y7.471 E54.67238
G1 X17.57 Y6.834 E54.69542
M204 S5000
M205 X30 Y30
G0 F3600 X17.969 Y6.931
M204 S500
M205 X20 Y20
G1 F1200 X18.312 Y6.357 E54.71766
G1 X18.721 Y5.827 E54.73992
G1 X19.19 Y5.35 E54.76217
G1 X19.712 Y4.932 E54.78441
G1 X20.281 Y4.58 E54.80667
G1 X20.888 Y4.298 E54.82893
G1 X21.524 Y4.09 E54.85118
G1 X22.18 Y3.96 E54.87343
G1 X22.945 Y3.908 E54.89893
G1 X79.268 Y3.945 E56.77224
G1 X79.343 Y3.946 E56.77474
G1 X84.861 Y4.024 E56.95828
G1 X88.194 Y3.917 E57.0692
G1 X88.374 Y3.914 E57.07518
G1 X198.608 Y3.907 E60.74158
G1 X199.275 Y3.947 E60.76381
G1 X199.934 Y4.066 E60.78608
G1 X200.573 Y4.263 E60.80832
G1 X201.185 Y4.535 E60.8306
G1 X201.759 Y4.878 E60.85284
G1 X202.289 Y5.286 E60.87508
G1 X202.766 Y5.756 E60.89735
G1 X203.183 Y6.278 E60.91958
G1 X203.536 Y6.847 E60.94185
G1 X203.818 Y7.454 E60.96411
G1 X204.026 Y8.089 E60.98633
G1 X204.156 Y8.746 E61.00861
G1 X204.208 Y9.507 E61.03398
G1 X204.208 Y225.488 E68.21754
G1 X204.168 Y226.156 E68.23979
G1 X204.049 Y226.814 E68.26203
G1 X203.852 Y227.454 E68.28431
G1 X203.58 Y228.065 E68.30655
G1 X203.237 Y228.639 E68.32879
G1 X202.828 Y229.169 E68.35106
G1 X202.359 Y229.646 E68.37331
G1 X201.837 Y230.064 E68.39555
G1 X201.268 Y230.416 E68.4178
G1 X200.661 Y230.698 E68.44006
G1 X200.025 Y230.906 E68.46232
G1 X199.369 Y231.036 E68.48456
G1 X198.606 Y231.088 E68.51
G1 X87.79 Y231.052 E72.19575
G1 X87.713 Y231.051 E72.19831
G1 X82.197 Y230.973 E72.3818
G1 X78.84 Y231.082 E72.49351
G1 X78.658 Y231.085 E72.49956
G1 X22.94 Y231.089 E74.35275
G1 X22.273 Y231.049 E74.37498
G1 X21.614 Y230.93 E74.39725
G1 X20.975 Y230.733 E74.41949
G1 X20.364 Y230.461 E74.44173
G1 X19.789 Y230.118 E74.464
G1 X19.259 Y229.71 E74.48625
G1 X18.782 Y229.24 E74.50852
G1 X18.365 Y228.718 E74.53074
G1 X18.012 Y228.149 E74.55301
G1 X17.73 Y227.543 E74.57524
G1 X17.522 Y226.907 E74.5975
G1 X17.392 Y226.25 E74.61978
G1 X17.34 Y225.489 E74.64515
G1 X17.341 Y9.508 E81.8287
G1 X17.381 Y8.84 E81.85096
G1 X17.5 Y8.182 E81.8732
G1 X17.697 Y7.542 E81.89547
G1 X17.969 Y6.931 E81.91772
M204 S5000
M205 X30 Y30
G0 F3600 X18.368 Y7.032
M204 S500
M205 X20 Y20
G1 F1200 X18.71 Y6.485 E81.93917
G1 X19.116 Y5.985 E81.9606
G1 X19.581 Y5.539 E81.98203
G1 X20.098 Y5.154 E82.00347
G1 X20.659 Y4.835 E82.02493
G1 X21.255 Y4.589 E82.04638
G1 X21.876 Y4.418 E82.0678
G1 X22.514 Y4.326 E82.08924
G1 X22.944 Y4.308 E82.10355
G1 X79.267 Y4.345 E83.97686
G1 X79.338 Y4.346 E83.97923
G1 X84.869 Y4.424 E84.16321
G1 X88.207 Y4.317 E84.27429
G1 X88.374 Y4.314 E84.27984
G1 X198.608 Y4.307 E87.94624
G1 X199.251 Y4.347 E87.96767
G1 X199.885 Y4.466 E87.98912
G1 X200.499 Y4.663 E88.01057
G1 X201.083 Y4.934 E88.03198
G1 X201.63 Y5.275 E88.05342
G1 X202.131 Y5.682 E88.07489
G1 X202.577 Y6.147 E88.09632
G1 X202.962 Y6.664 E88.11776
G1 X203.28 Y7.225 E88.13921
G1 X203.527 Y7.82 E88.16063
G1 X203.698 Y8.442 E88.18209
G1 X203.79 Y9.08 E88.20353
G1 X203.808 Y9.507 E88.21774
G1 X203.808 Y225.488 E95.4013
G1 X203.768 Y226.131 E95.42273
G1 X203.649 Y226.765 E95.44418
G1 X203.452 Y227.379 E95.46563
G1 X203.181 Y227.964 E95.48707
G1 X202.839 Y228.511 E95.50853
G1 X202.433 Y229.011 E95.52995
G1 X201.968 Y229.457 E95.55138
G1 X201.451 Y229.842 E95.57282
G1 X200.89 Y230.161 E95.59429
G1 X200.294 Y230.407 E95.61573
G1 X199.673 Y230.578 E95.63716
G1 X199.035 Y230.67 E95.6586
G1 X198.606 Y230.688 E95.67288
G1 X87.79 Y230.652 E99.35863
G1 X87.718 Y230.651 E99.36103
G1 X82.189 Y230.573 E99.54494
G1 X78.827 Y230.682 E99.65682
G1 X78.658 Y230.685 E99.66244
G1 X22.94 Y230.689 E101.51563
G1 X22.297 Y230.649 E101.53706
G1 X21.663 Y230.53 E101.55851
G1 X21.049 Y230.333 E101.57996
G1 X20.465 Y230.062 E101.60137
G1 X19.918 Y229.721 E101.62281
G1 X19.417 Y229.314 E101.64428
G1 X18.971 Y228.849 E101.66571
G1 X18.586 Y228.332 E101.68715
G1 X18.268 Y227.771 E101.7086
G1 X18.021 Y227.176 E101.73003
G1 X17.85 Y226.554 E101.75148
G1 X17.758 Y225.916 E101.77292
G1 X17.74 Y225.489 E101.78714
G1 X17.741 Y9.508 E108.97069
G1 X17.781 Y8.865 E108.99212
G1 X17.9 Y8.231 E109.01358
G1 X18.097 Y7.617 E109.03502
G1 X18.368 Y7.032 E109.05647
M204 S5000
M205 X30 Y30
G1 F2400 E104.05647
;MESH:caja_design (extracted).stl
G0 F3600 X22.266 Y10.113
G0 X23.545 Y10.113
G0 X68.094 Y223.501
G0 X67.856 Y224.612
G0 X67.77 Y224.563
M204 S500
M205 X20 Y20
;TYPE:WALL-INNER
G1 F2400 E109.05647
G1 F1200 X67.78 Y224.525 E109.05777
G1 X68.054 Y223.501 E109.09303
G1 X67.77 Y222.439 E109.12959
G1 X66.992 Y221.661 E109.16619
G1 X65.93 Y221.378 E109.20274
G1 X64.868 Y221.661 E109.2393
G1 X64.09 Y222.439 E109.27589
G1 X63.806 Y223.501 E109.31246
G1 X64.08 Y224.525 E109.34771
G1 X64.09 Y224.563 E109.34902
G1 X64.428 Y224.901 E109.36492
G1 X64.09 Y224.901 E109.36891
G1 X64.05 Y224.901 E109.37016
G1 X36.402 Y224.901 E110.28974
G1 X35.993 Y224.901 E110.30334
G1 X35.766 Y224.901 E110.31089
G1 X35.993 Y224.84 E110.31167
G1 X36.282 Y224.551 E110.31993
G1 X36.77 Y224.063 E110.34289
G1 X37.054 Y223.001 E110.37945
G1 X36.77 Y221.939 E110.41601
G1 X35.992 Y221.161 E110.45261
G1 X34.93 Y220.878 E110.48916
G1 X33.868 Y221.161 E110.52572
G1 X33.09 Y221.939 E110.56231
G1 X32.806 Y223.001 E110.59888
G1 X33.09 Y224.063 E110.63544
G1 X33.578 Y224.551 E110.65839
G1 X33.867 Y224.84 E110.67199
G1 X34.094 Y224.901 E110.67981
G1 X33.867 Y224.901 E110.68032
G1 X33.458 Y224.901 E110.6886
G1 X23.531 Y224.901 E111.01878
G1 X23.531 Y10.099 E118.16312
G1 X33.051 Y10.099 E118.47976
G1 X33.09 Y10.099 E118.48105
G1 X33.43 Y10.099 E118.49236
G1 X33.09 Y10.439 E118.50108
G1 X33.08 Y10.476 E118.50227
G1 X32.806 Y11.501 E118.53756
G1 X33.09 Y12.563 E118.57413
G1 X33.867 Y13.34 E118.61067
G1 X34.93 Y13.626 E118.64729
G1 X35.993 Y13.34 E118.6839
G1 X36.77 Y12.563 E118.72045
G1 X37.054 Y11.501 E118.75701
G1 X36.78 Y10.476 E118.7923
G1 X36.77 Y10.439 E118.79357
G1 X36.43 Y10.099 E118.80957
G1 X36.77 Y10.099 E118.81361
G1 X36.809 Y10.099 E118.81483
G1 X64.46 Y10.099 E119.7345
G1 X64.868 Y10.099 E119.74807
G1 X65.101 Y10.099 E119.75582
G1 X64.868 Y10.161 E119.75663
G1 X64.58 Y10.449 E119.76488
G1 X64.09 Y10.939 E119.78793
G1 X63.806 Y12.001 E119.82449
G1 X64.09 Y13.063 E119.86106
G1 X64.867 Y13.84 E119.8976
G1 X65.93 Y14.126 E119.93422
G1 X66.993 Y13.84 E119.97083
G1 X67.77 Y13.063 E120.00738
G1 X68.054 Y12.001 E120.04394
G1 X67.77 Y10.939 E120.0805
G1 X67.28 Y10.449 E120.10355
G1 X66.992 Y10.161 E120.1171
G1 X66.759 Y10.099 E120.12512
G1 X66.992 Y10.099 E120.12566
G1 X67.4 Y10.099 E120.13394
G1 X77.829 Y10.099 E120.48081
G1 X77.829 Y224.901 E127.62515
G1 X67.81 Y224.901 E127.95838
G1 X67.77 Y224.901 E127.95963
G1 X67.432 Y224.901 E127.97088
G1 X67.77 Y224.563 E127.97952
M204 S5000
M205 X30 Y30
G0 F3600 X67.856 Y224.612
G0 X67.132 Y225.201
G0 X65.93 Y225.201
G0 X65.93 Y225.212
M204 S500
M205 X20 Y20
;TYPE:WALL-OUTER
G1 F1200 X66.786 Y224.982 E128.009
G1 X66.854 Y224.914 E128.0122
G1 X67.411 Y224.356 E128.03843
G1 X67.64 Y223.501 E128.06787
G1 X67.411 Y222.646 E128.09731
G1 X66.785 Y222.02 E128.12675
G1 X65.93 Y221.792 E128.15618
G1 X65.075 Y222.02 E128.18561
G1 X64.449 Y222.646 E128.21506
G1 X64.22 Y223.501 E128.2445
G1 X64.449 Y224.356 E128.27394
G1 X65.006 Y224.914 E128.30016
G1 X65.074 Y224.982 E128.30336
G1 X65.93 Y225.212 E128.33284
M204 S5000
M205 X30 Y30
G0 F3600 X66.123 Y225.161
G0 X66.143 Y225.201
G0 X77.759 Y224.831
G0 X78.229 Y225.301
M204 S500
M205 X20 Y20
G1 F1200 X66.883 Y225.301 E128.71021
G1 X66.786 Y225.301 E128.71314
G1 X65.93 Y225.301 E128.72753
G1 X65.074 Y225.301 E128.74193
G1 X64.977 Y225.301 E128.74486
G1 X23.131 Y225.301 E130.13666
G1 X23.131 Y9.699 E137.30761
G1 X33.98 Y9.699 E137.66845
G1 X34.075 Y9.699 E137.67161
G1 X34.93 Y9.699 E137.70005
G1 X35.785 Y9.699 E137.72849
G1 X35.88 Y9.699 E137.73165
G1 X78.229 Y9.699 E139.14018
G1 X78.229 Y225.301 E146.31113
M204 S5000
M205 X30 Y30
G0 F3600 X78.029 Y225.301
G0 X77.759 Y224.831
G0 X65.93 Y225.252
G0 X34.93 Y224.812
G0 X34.93 Y224.712
M204 S500
M205 X20 Y20
G1 F1200 X35.786 Y224.482 E146.34061
G1 X36.411 Y223.856 E146.37003
G1 X36.64 Y223.001 E146.39947
G1 X36.411 Y222.146 E146.42891
G1 X35.785 Y221.52 E146.45836
G1 X34.93 Y221.292 E146.48779
G1 X34.075 Y221.52 E146.51722
G1 X33.449 Y222.146 E146.54667
G1 X33.22 Y223.001 E146.57611
G1 X33.449 Y223.856 E146.60555
G1 X34.074 Y224.482 E146.63497
G1 X34.93 Y224.712 E146.66445
M204 S5000
M205 X30 Y30
G0 F3600 X35.123 Y224.661
G0 X35.146 Y224.757
G0 X35.806 Y224.516
G0 X36.445 Y223.875
G0 X36.656 Y223.089
G0 X34.801 Y13.694
G0 X34.93 Y13.212
M204 S500
M205 X20 Y20
G1 F1200 X35.786 Y12.982 E146.69393
G1 X36.411 Y12.356 E146.72335
G1 X36.64 Y11.501 E146.75279
G1 X36.411 Y10.646 E146.78223
G1 X35.852 Y10.087 E146.80852
G1 X35.785 Y10.02 E146.81138
G1 X34.93 Y9.792 E146.82696
G1 X34.075 Y10.02 E146.84254
G1 X34.008 Y10.087 E146.8454
G1 X33.449 Y10.646 E146.87169
G1 X33.22 Y11.501 E146.90113
G1 X33.449 Y12.356 E146.93057
G1 X34.074 Y12.982 E146.95999
G1 X34.93 Y13.212 E146.98947
M204 S5000
M205 X30 Y30
G0 F3600 X35.123 Y13.161
G0 X35.251 Y13.643
G0 X65.801 Y14.194
G0 X65.93 Y13.712
M204 S500
M205 X20 Y20
G1 F1200 X66.786 Y13.482 E147.01895
G1 X67.411 Y12.856 E147.04838
G1 X67.64 Y12.001 E147.07782
G1 X67.411 Y11.146 E147.10726
G1 X66.785 Y10.52 E147.1367
G1 X65.93 Y10.292 E147.16613
G1 X65.075 Y10.52 E147.19556
G1 X64.449 Y11.146 E147.22501
G1 X64.22 Y12.001 E147.25445
G1 X64.449 Y12.856 E147.28389
G1 X65.074 Y13.482 E147.31331
G1 X65.93 Y13.712 E147.34279
M204 S5000
M205 X30 Y30
G0 F3600 X66.123 Y13.661
G0 X66.251 Y14.143
G0 X65.93 Y14.53
M204 S500
M205 X20 Y20
;TYPE:SKIN
G1 F1200 X67.195 Y14.189 E147.38637
G1 X68.119 Y13.264 E147.42985
G1 X68.458 Y12.001 E147.47335
G1 X68.119 Y10.738 E147.51684
G1 X67.87 Y10.489 E147.52855
G1 X77.439 Y10.489 E147.84682
G1 X77.439 Y224.511 E154.96522
G1 X68.187 Y224.511 E155.27294
G1 X68.458 Y223.501 E155.30772
G1 X68.119 Y222.238 E155.35122
G1 X67.193 Y221.312 E155.39477
G1 X65.93 Y220.974 E155.43826
G1 X64.667 Y221.312 E155.48174
G1 X63.741 Y222.238 E155.5253
G1 X63.402 Y223.501 E155.5688
G1 X63.673 Y224.511 E155.60358
G1 X36.872 Y224.511 E156.49498
G1 X37.119 Y224.264 E156.5066
G1 X37.458 Y223.001 E156.55009
G1 X37.119 Y221.738 E156.59359
G1 X36.193 Y220.812 E156.63714
G1 X34.93 Y220.474 E156.68063
G1 X33.667 Y220.812 E156.72412
G1 X32.741 Y221.738 E156.76767
G1 X32.402 Y223.001 E156.81117
G1 X32.741 Y224.264 E156.85466
G1 X32.988 Y224.511 E156.86628
G1 X23.921 Y224.511 E157.16785
G1 X23.921 Y10.489 E164.28625
G1 X32.674 Y10.489 E164.57738
G1 X32.402 Y11.501 E164.61223
G1 X32.741 Y12.764 E164.65572
G1 X33.665 Y13.689 E164.69921
G1 X34.93 Y14.03 E164.74279
